X: 24
T:Innis's Jig (#134)
M:6/8
L:1/8
S:Aird's Selections 1782-97
K:G
D|GAG BAG|dBG e2 g|edc BAG|EAA A2 B|
GAG BAG|dBd e2 G|gfe dec|BGG G2:|
|:d|gdB GAG|DED GAG|edc BAG|EAA "tr"A2 f|
gdB GAG|ecA FED|gfe dec|BGG G2:||

